X:64
T:Braes of Auchtertyre
R:Reel
B:The Athole Collection
M:C|
L:1/8
K:C
G,|C2CF EGGA|cded cAGc|A/A/A AG A2a2|gcfe d2c2|C2CF EGGA|
cded cAGc|AcGc FcEc|dBcE D2C||f|efga gecg|afeg edcG|A/A/A ag a2 c'2|
ecfe d2 cf|efga gecg|afdg edcA|AcGc FcEc|dBcE D2C||

